X:1
T:Dublin Lasses -- Reel
R:reel
B:Ryan's Mammoth Collection
Z:Contributed by Ray Davies, ray:davies99.freeserve.co.uk
M:C|
L:1/8
K:F
ud"^Segno"|:cFF2 cFdF|cFFG AGG2|cFF2 cFdF|GBAG FDD2|\
cFF2 cFdF|cFFG AGG2|FGAc d2cA|GBAG FDD2::\
fefg a2ag|fefg adde|fefg a2ag|fdec Add2|\
fefg a2ag|fefg adde|afge f2ed|cGGA FDD2:"^Segno"[|]|]
